svg/outline/visa.svg

<?xml version="1.0" encoding="UTF-8" standalone="no"?>
<svg width="780px" height="501px" viewBox="0 0 780 501" version="1.1" xmlns="http://www.w3.org/2000/svg" xmlns:xlink="http://www.w3.org/1999/xlink" xmlns:sketch="http://www.bohemiancoding.com/sketch/ns">
    <!-- Generator: Sketch 3.3.1 (12005) - http://www.bohemiancoding.com/sketch -->
    <title>visa</title>
    <desc>Created with Sketch.</desc>
    <defs></defs>
    <g id="Page-1" stroke="none" stroke-width="1" fill="none" fill-rule="evenodd" sketch:type="MSPage">
        <rect id="Rectangle-1" stroke="#393939" stroke-width="30" sketch:type="MSShapeGroup" x="15" y="14" width="750" height="471" rx="40"></rect>
        <path d="M293.1975,348.2275 L326.5585,152.4655 L379.9175,152.4655 L346.5335,348.2275 L293.1975,348.2275 Z" id="Shape" fill="#393939" sketch:type="MSShapeGroup"></path>
        <path d="M539.3075,156.6875 C528.7355,152.7215 512.1715,148.4655 491.4845,148.4655 C438.7605,148.4655 401.6205,175.0165 401.3045,213.0695 C401.0075,241.1985 427.8185,256.8905 448.0585,266.2545 C468.8275,275.8495 475.8105,281.9695 475.7115,290.5375 C475.5795,303.6595 459.1255,309.6545 443.7885,309.6545 C422.4315,309.6545 411.0855,306.6875 393.5625,299.3785 L386.6865,296.2665 L379.1975,340.0905 C391.6605,345.5545 414.7065,350.2895 438.6355,350.5345 C494.7245,350.5345 531.1365,324.2875 531.5505,283.6525 C531.7515,261.3835 517.5355,244.4355 486.7515,230.4645 C468.1005,221.4085 456.6785,215.3655 456.7995,206.1955 C456.7995,198.0585 466.4675,189.3575 487.3565,189.3575 C504.8055,189.0865 517.4445,192.8915 527.2925,196.8575 L532.0745,199.1165 L539.3075,156.6875" id="Shape" fill="#393939" sketch:type="MSShapeGroup"></path>
        <path d="M676.6145,152.4655 L635.3835,152.4655 C622.6105,152.4655 613.0525,155.9515 607.4425,168.6995 L528.1975,348.1025 L584.2285,348.1025 C584.2285,348.1025 593.3905,323.9805 595.4625,318.6845 C601.5855,318.6845 656.0165,318.7685 663.7985,318.7685 C665.3945,325.6215 670.2905,348.1025 670.2905,348.1025 L719.8025,348.1025 L676.6145,152.4655 Z M611.1975,278.8725 C615.6105,267.5935 632.4565,224.1495 632.4565,224.1495 C632.1415,224.6705 636.8365,212.8155 639.5315,205.4655 L643.1385,222.3435 C643.1385,222.3435 653.3555,269.0725 655.4905,278.8715 L611.1975,278.8715 L611.1975,278.8725 Z" id="Path" fill="#393939" sketch:type="MSShapeGroup"></path>
        <path d="M247.9025,152.4655 L195.6625,285.9605 L190.0965,258.8315 C180.3715,227.5575 150.0715,193.6755 116.1975,176.7125 L163.9645,347.9155 L220.4195,347.8505 L304.4235,152.4655 L247.9025,152.4655" id="Path" fill="#393939" sketch:type="MSShapeGroup"></path>
        <path d="M146.9195,152.4655 L60.8785,152.4655 L60.1975,156.5385 C127.1365,172.7425 171.4295,211.9015 189.8155,258.9525 L171.1065,168.9925 C167.8765,156.5965 158.5085,152.8975 146.9195,152.4655" id="Shape" fill="#393939" sketch:type="MSShapeGroup"></path>
    </g>
</svg>

<svg width="780" height="501" viewBox="0 0 780 501" xmlns="http://www.w3.org/2000/svg"><title>visa</title><g fill="none" fill-rule="evenodd"><rect stroke="#393939" stroke-width="30" x="15" y="14" width="750" height="471" rx="40"/><path d="M293.197 348.228l33.361-195.763h53.36l-33.385 195.763h-53.336zM539.308 156.688c-10.572-3.966-27.136-8.222-47.823-8.222-52.725 0-89.865 26.55-90.18 64.603-.298 28.13 26.513 43.821 46.753 53.186 20.77 9.594 27.752 15.714 27.654 24.283-.132 13.121-16.587 19.116-31.923 19.116-21.357 0-32.703-2.966-50.226-10.276l-6.876-3.111-7.49 43.824c12.464 5.464 35.51 10.198 59.438 10.443 56.09 0 92.501-26.246 92.916-66.882.2-22.268-14.016-39.216-44.8-53.188-18.65-9.055-30.072-15.099-29.951-24.268 0-8.137 9.667-16.839 30.556-16.839 17.45-.27 30.088 3.535 39.937 7.5l4.781 2.26 7.234-42.43M676.615 152.465h-41.231c-12.774 0-22.332 3.487-27.942 16.234l-79.245 179.404h56.032s9.161-24.123 11.233-29.418c6.124 0 60.554.084 68.337.084 1.596 6.853 6.491 29.334 6.491 29.334h49.513l-43.188-195.638zm-65.418 126.407c4.413-11.279 21.26-54.723 21.26-54.723-.316.522 4.38-11.334 7.075-18.684l3.606 16.879s10.217 46.728 12.352 56.528h-44.293zM247.903 152.465l-52.24 133.496-5.567-27.13c-9.725-31.274-40.025-65.156-73.898-82.119l47.766 171.204 56.456-.065 84.004-195.386h-56.521" fill="#393939"/><path d="M146.92 152.465H60.879l-.681 4.073c66.938 16.204 111.231 55.363 129.618 102.414l-18.71-89.96c-3.23-12.395-12.597-16.094-24.186-16.526" fill="#393939"/></g></svg>
